X: 295
T: Beste-Isfahan Seyir
C: Şefik Gürmeriç
O: Turkey
F: http://compmusic.upf.edu/node/140
N: besteisfahan--seyir--sofyan--1--sefik_gurmeric
N: makam= besteisfahan
N: form= seyir
N: usul= sofyan = 4/4
M: 4/4
L: 1/16
K: C _1/4B   
Q: 1/4=60
%%MIDI tuningsystem comma53
c4 d4 d4 e2f2  | e2d2 c2d2 c4 _2/4B4  | \
w:   |   | 
^c2d2 e2f2 e2d2 d2e2  | d3^c =B2c2 d8  | 
w:   |   | 
z4 d2g2 ^f4 ^e4  | ^f2g2 a2=b2 ag^3/4fe d4  | \
w:   |   | 
g4 ^3/4f2e2 d3^c =B4  | ^c2d2 efed d8  | 
w:   |   | 
z4 c2d2 d4 a4  | g2f2 e2d2 d3c _2/4B4  | \
w:   |   | 
c2d2 e2f2 e2d2 c2_2/4B2  | c3_2/4B A2B2 A8  | 
w:   |   | 
d4 c2B2 A2G2 ^F2^E2  | ^F6G2 F2G2 A2B2  | \
w:   |   | 
A4 G2^F2 ^E2F2 GAGF  | 
w:   | 
^F16  | |


